svg/BR.svg

<?xml version="1.0" encoding="UTF-8" standalone="no"?>
<svg xmlns="http://www.w3.org/2000/svg" height="504" width="720" version="1.0" xmlns:xlink="http://www.w3.org/1999/xlink" viewBox="-2100 -1470 4200 2940">
 <defs>
  <path id="D" fill-rule="evenodd" d="m-31.5 0h33a30 30 0 0 0 30 -30v-10a30 30 0 0 0 -30 -30h-33zm13-13h19a19 19 0 0 0 19 -19v-6a19 19 0 0 0 -19 -19h-19z"/>
  <path id="E" transform="translate(-31.5)" d="m0 0h63v-13h-51v-18h40v-12h-40v-14h48v-13h-60z"/>
  <path id="e" d="m-26.25 0h52.5v-12h-40.5v-16h33v-12h-33v-11h39.25v-12h-51.25z"/>
  <g id="G">
   <clipPath id="gcut">
    <path d="m-31.5 0v-70h63v70zm31.5-47v12h31.5v-12z"/>
   </clipPath>
   <use xlink:href="#O" clip-path="url(#gcut)"/>
   <rect y="-35" x="5" height="10" width="26.5"/>
   <rect y="-35" x="21.5" height="35" width="10"/>
  </g>
  <path id="M" d="m-31.5 0h12v-48l14 48h11l14-48v48h12v-70h-17.5l-14 48-14-48h-17.5z"/>
  <path id="O" fill-rule="evenodd" d="m0 0a31.5 35 0 0 0 0 -70 31.5 35 0 0 0 0 70m0-13a18.5 22 0 0 0 0 -44 18.5 22 0 0 0 0 44"/>
  <path id="P" fill-rule="evenodd" d="m-31.5 0h13v-26h28a22 22 0 0 0 0 -44h-40zm13-39h27a9 9 0 0 0 0 -18h-27z"/>
  <g id="R">
   <use xlink:href="#P"/>
   <path d="m28 0c0-10 0-32-15-32h-19c22 0 22 22 22 32"/>
  </g>
  <path id="S" d="m-15.75-22c0 7 6.75 10.5 16.75 10.5s14.74-3.25 14.75-7.75c0-14.25-46.75-5.25-46.5-30.25 0.25-21.5 24.75-20.5 33.75-20.5s26 4 25.75 21.25h-15.25c0-7.5-7-10.25-15-10.25-7.75 0-13.25 1.25-13.25 8.5-0.25 11.75 46.25 4 46.25 28.75 0 18.25-18 21.75-31.5 21.75-11.5 0-31.55-4.5-31.5-22z"/>
  <g id="star" fill="#fff">
   <g id="c">
    <path id="t" transform="rotate(18 0,-1)" d="m0-1v1h0.5"/>
    <use xlink:href="#t" transform="scale(-1,1)"/>
   </g>
   <use xlink:href="#c" transform="rotate(72)"/>
   <use xlink:href="#c" transform="rotate(-72)"/>
   <use xlink:href="#c" transform="rotate(144)"/>
   <use xlink:href="#c" transform="rotate(216)"/>
  </g>
  <use id="star1" xlink:href="#star" transform="scale(31.5)"/>
  <use id="star2" xlink:href="#star" transform="scale(26.25)"/>
  <use id="star3" xlink:href="#star" transform="scale(21)"/>
  <use id="star4" xlink:href="#star" transform="scale(15)"/>
  <use id="star5" xlink:href="#star" transform="scale(10.5)"/>
 </defs>
 <rect y="-50%" x="-50%" height="100%" fill="#009b3a" width="100%"/>
 <path d="m-1743 0 1743 1113 1743-1113-1743-1113z" fill="#fedf00"/>
 <circle r="735" fill="#002776"/>
 <clipPath id="band">
  <circle r="735"/>
 </clipPath>
 <path fill="#fff" d="m-2205 1470a1785 1785 0 0 1 3570 0h-105a1680 1680 0 1 0 -3360 0z" clip-path="url(#band)"/>
 <g transform="translate(-420,1470)" fill="#009b3a">
  <use y="-1697.5" xlink:href="#O" transform="rotate(-7)"/>
  <use y="-1697.5" xlink:href="#R" transform="rotate(-4)"/>
  <use y="-1697.5" xlink:href="#D" transform="rotate(-1)"/>
  <use y="-1697.5" xlink:href="#E" transform="rotate(2)"/>
  <use y="-1697.5" xlink:href="#M" transform="rotate(5)"/>
  <use y="-1697.5" xlink:href="#e" transform="rotate(9.75)"/>
  <use y="-1697.5" xlink:href="#P" transform="rotate(14.5)"/>
  <use y="-1697.5" xlink:href="#R" transform="rotate(17.5)"/>
  <use y="-1697.5" xlink:href="#O" transform="rotate(20.5)"/>
  <use y="-1697.5" xlink:href="#G" transform="rotate(23.5)"/>
  <use y="-1697.5" xlink:href="#R" transform="rotate(26.5)"/>
  <use y="-1697.5" xlink:href="#E" transform="rotate(29.5)"/>
  <use y="-1697.5" xlink:href="#S" transform="rotate(32.5)"/>
  <use y="-1697.5" xlink:href="#S" transform="rotate(35.5)"/>
  <use y="-1697.5" xlink:href="#O" transform="rotate(38.5)"/>
 </g>
 <use id="αCMi" y="-132" x="-600" xlink:href="#star1"/>
 <use id="αCMa" y="177" x="-535" xlink:href="#star1"/>
 <use id="βCMa" y="243" x="-625" xlink:href="#star2"/>
 <use id="γCMa" y="132" x="-463" xlink:href="#star4"/>
 <use id="δCMa" y="250" x="-382" xlink:href="#star2"/>
 <use id="εCMa" y="323" x="-404" xlink:href="#star3"/>
 <use id="αVir" y="-228" x="228" xlink:href="#star1"/>
 <use id="αSco" y="258" x="515" xlink:href="#star1"/>
 <use id="βSco" y="265" x="617" xlink:href="#star3"/>
 <use id="εSco" y="323" x="545" xlink:href="#star2"/>
 <use id="θSco" y="477" x="368" xlink:href="#star2"/>
 <use id="ιSco" y="551" x="367" xlink:href="#star3"/>
 <use id="κSco" y="419" x="441" xlink:href="#star3"/>
 <use id="λSco" y="382" x="500" xlink:href="#star2"/>
 <use id="μSco" y="405" x="365" xlink:href="#star3"/>
 <use id="αHya" y="30" x="-280" xlink:href="#star2"/>
 <use id="γHya" y="-37" x="200" xlink:href="#star3"/>
 <use id="αCru" y="330" xlink:href="#star1"/>
 <use id="βCru" y="184" x="85" xlink:href="#star2"/>
 <use id="γCru" y="118" xlink:href="#star2"/>
 <use id="δCru" y="184" x="-74" xlink:href="#star3"/>
 <use id="εCru" y="235" x="-37" xlink:href="#star4"/>
 <use id="αTrA" y="495" x="220" xlink:href="#star2"/>
 <use id="βTrA" y="430" x="283" xlink:href="#star3"/>
 <use id="γTrA" y="412" x="162" xlink:href="#star3"/>
 <use id="αCar" y="390" x="-295" xlink:href="#star1"/>
 <use id="σOct" y="575" xlink:href="#star5"/>
</svg>

<svg height="742" width="1060" version="1.1" viewBox="-2100 -1470 6183.333 4328.333" id="svg2008" xmlns:xlink="http://www.w3.org/1999/xlink" xmlns="http://www.w3.org/2000/svg"><defs id="defs1936"><g id="G"><clipPath id="gcut"><path d="m -31.5,0 v -70 h 63 V 0 Z M 0,-47 v 12 h 31.5 v -12 z" id="path1889"/></clipPath><use xlink:href="#O" clip-path="url(#gcut)" id="use1892" x="0" y="0" width="100%" height="100%"/><path id="rect1894" d="M5-35H31.5V-25H5z"/><path id="rect1896" d="M21.5-35H31.5V0H21.5z"/></g><g id="R"><use xlink:href="#P" id="use1902" x="0" y="0" width="100%" height="100%"/><path d="m 28,0 c 0,-10 0,-32 -15,-32 H -6 c 22,0 22,22 22,32" id="path1904"/></g><g id="star" fill="#fff"><g id="c"><path id="t" transform="rotate(18,0,-1)" d="M 0,-1 V 0 H 0.5"/><use xlink:href="#t" transform="scale(-1,1)" id="use1909" x="0" y="0" width="100%" height="100%"/></g><use xlink:href="#c" transform="rotate(72)" id="use1912" x="0" y="0" width="100%" height="100%"/><use xlink:href="#c" transform="rotate(-72)" id="use1914" x="0" y="0" width="100%" height="100%"/><use xlink:href="#c" transform="rotate(144)" id="use1916" x="0" y="0" width="100%" height="100%"/><use xlink:href="#c" transform="rotate(-144)" id="use1918" x="0" y="0" width="100%" height="100%"/></g><g id="star1"><use xlink:href="#star" transform="scale(31.5)" id="use1921" x="0" y="0" width="100%" height="100%"/></g><g id="star2"><use xlink:href="#star" transform="scale(26.25)" id="use1924" x="0" y="0" width="100%" height="100%"/></g><g id="star3"><use xlink:href="#star" transform="scale(21)" id="use1927" x="0" y="0" width="100%" height="100%"/></g><g id="star4"><use xlink:href="#star" transform="scale(15)" id="use1930" x="0" y="0" width="100%" height="100%"/></g><g id="star5"><use xlink:href="#star" transform="scale(10.5)" id="use1933" x="0" y="0" width="100%" height="100%"/></g><path id="D" fill-rule="evenodd" d="m -31.5,0 h 33 a 30,30 0 0 0 30,-30 v -10 a 30,30 0 0 0 -30,-30 h -33 z m 13,-13 h 19 a 19,19 0 0 0 19,-19 v -6 a 19,19 0 0 0 -19,-19 h -19 z"/><path id="E" transform="translate(-31.5)" d="M 0,0 H 63 V -13 H 12 V -31 H 52 V -43 H 12 V -57 H 60 V -70 H 0 Z"/><path id="e" d="m -26.25,0 h 52.5 v -12 h -40.5 v -16 h 33 v -12 h -33 V -51 H 25 v -12 h -51.25 z"/><path id="M" d="m -31.5,0 h 12 v -48 l 14,48 h 11 l 14,-48 V 0 h 12 V -70 H 14 L 0,-22 -14,-70 h -17.5 z"/><path id="O" fill-rule="evenodd" d="M 0,0 A 31.5,35 0 0 0 0,-70 31.5,35 0 0 0 0,0 m 0,-13 a 18.5,22 0 0 0 0,-44 18.5,22 0 0 0 0,44"/><path id="P" fill-rule="evenodd" d="m -31.5,0 h 13 v -26 h 28 a 22,22 0 0 0 0,-44 h -40 z m 13,-39 h 27 a 9,9 0 0 0 0,-18 h -27 z"/><path id="S" d="m -15.75,-22 c 0,7 6.75,10.5 16.75,10.5 10,0 14.74,-3.25 14.75,-7.75 C 15.75,-33.5 -31,-24.5 -30.75,-49.5 -30.5,-71 -6,-70 3,-70 c 9,0 26,4 25.75,21.25 H 13.5 c 0,-7.5 -7,-10.25 -15,-10.25 -7.75,0 -13.25,1.25 -13.25,8.5 -0.25,11.75 46.25,4 46.25,28.75 C 31.5,-3.5 13.5,0 0,0 -11.5,0 -31.55,-4.5 -31.5,-22 Z"/></defs><clipPath id="band"><circle r="735" id="circle1944" cx="0" cy="0"/></clipPath><g id="g2461" transform="matrix(1.4722222,0,0,1.4722222,991.66662,694.1667)"><path style="fill:#009b3a;fill-opacity:1;stroke:none;stroke-width:13.3475;stroke-linecap:round;stroke-linejoin:round;stroke-miterlimit:4;stroke-dasharray:none" id="rect2216" d="M-2100-1470H2100V1470H-2100z"/><path d="M -1743,0 0,1113 1743,0 0,-1113 Z" fill="#fedf00" id="path1940"/><circle r="735" fill="#002776" id="circle1942" cx="0" cy="0"/><path fill="#fff" d="m -2205,1470 a 1785,1785 0 0 1 3570,0 h -105 a 1680,1680 0 1 0 -3360,0 z" clip-path="url(#band)" id="path1947"/><g transform="translate(-420,1470)" fill="#009b3a" id="g1979"><use y="-1697.5" xlink:href="#O" transform="rotate(-7)" id="use1949" x="0" width="100%" height="100%"/><use y="-1697.5" xlink:href="#R" transform="rotate(-4)" id="use1951" x="0" width="100%" height="100%"/><use y="-1697.5" xlink:href="#D" transform="rotate(-1)" id="use1953" x="0" width="100%" height="100%"/><use y="-1697.5" xlink:href="#E" transform="rotate(2)" id="use1955" x="0" width="100%" height="100%"/><use y="-1697.5" xlink:href="#M" transform="rotate(5)" id="use1957" x="0" width="100%" height="100%"/><use y="-1697.5" xlink:href="#e" transform="rotate(9.75)" id="use1959" x="0" width="100%" height="100%"/><use y="-1697.5" xlink:href="#P" transform="rotate(14.5)" id="use1961" x="0" width="100%" height="100%"/><use y="-1697.5" xlink:href="#R" transform="rotate(17.5)" id="use1963" x="0" width="100%" height="100%"/><use y="-1697.5" xlink:href="#O" transform="rotate(20.5)" id="use1965" x="0" width="100%" height="100%"/><use y="-1697.5" xlink:href="#G" transform="rotate(23.5)" id="use1967" x="0" width="100%" height="100%"/><use y="-1697.5" xlink:href="#R" transform="rotate(26.5)" id="use1969" x="0" width="100%" height="100%"/><use y="-1697.5" xlink:href="#E" transform="rotate(29.5)" id="use1971" x="0" width="100%" height="100%"/><use y="-1697.5" xlink:href="#S" transform="rotate(32.5)" id="use1973" x="0" width="100%" height="100%"/><use y="-1697.5" xlink:href="#S" transform="rotate(35.5)" id="use1975" x="0" width="100%" height="100%"/><use y="-1697.5" xlink:href="#O" transform="rotate(38.5)" id="use1977" x="0" width="100%" height="100%"/></g><use id="αCMi" y="-132" x="-600" xlink:href="#star1" width="100%" height="100%"/><use id="αCMa" y="177" x="-535" xlink:href="#star1" width="100%" height="100%"/><use id="βCMa" y="243" x="-625" xlink:href="#star2" width="100%" height="100%"/><use id="γCMa" y="132" x="-463" xlink:href="#star4" width="100%" height="100%"/><use id="δCMa" y="250" x="-382" xlink:href="#star2" width="100%" height="100%"/><use id="εCMa" y="323" x="-404" xlink:href="#star3" width="100%" height="100%"/><use id="αVir" y="-228" x="228" xlink:href="#star1" width="100%" height="100%"/><use id="αSco" y="258" x="515" xlink:href="#star1" width="100%" height="100%"/><use id="βSco" y="265" x="617" xlink:href="#star3" width="100%" height="100%"/><use id="εSco" y="323" x="545" xlink:href="#star2" width="100%" height="100%"/><use id="θSco" y="477" x="368" xlink:href="#star2" width="100%" height="100%"/><use id="ιSco" y="551" x="367" xlink:href="#star3" width="100%" height="100%"/><use id="κSco" y="419" x="441" xlink:href="#star3" width="100%" height="100%"/><use id="λSco" y="382" x="500" xlink:href="#star2" width="100%" height="100%"/><use id="μSco" y="405" x="365" xlink:href="#star3" width="100%" height="100%"/><use id="αHya" y="30" x="-280" xlink:href="#star2" width="100%" height="100%"/><use id="γHya" y="-37" x="200" xlink:href="#star3" width="100%" height="100%"/><use id="αCru" y="330" xlink:href="#star1" x="0" width="100%" height="100%"/><use id="βCru" y="184" x="85" xlink:href="#star2" width="100%" height="100%"/><use id="γCru" y="118" xlink:href="#star2" x="0" width="100%" height="100%"/><use id="δCru" y="184" x="-74" xlink:href="#star3" width="100%" height="100%"/><use id="εCru" y="235" x="-37" xlink:href="#star4" width="100%" height="100%"/><use id="αTrA" y="495" x="220" xlink:href="#star2" width="100%" height="100%"/><use id="βTrA" y="430" x="283" xlink:href="#star3" width="100%" height="100%"/><use id="γTrA" y="412" x="162" xlink:href="#star3" width="100%" height="100%"/><use id="αCar" y="390" x="-295" xlink:href="#star1" width="100%" height="100%"/><use id="σOct" y="575" xlink:href="#star5" x="0" width="100%" height="100%"/></g></svg>
